X: 1
T: The Beauty Spot
R: reel
M: 4/4
L: 1/8
K: Dmix
|(3AAA GB A2 dB|cBcG EFGB|A2 GB AddB|cBcG ED (3DDD|
|A2 GB (3AAA dB|cBcG EFGB|(3AAA Ad ~B3d|cBcd ed(3ddd||
|ed (3B^cd edcd|ed^cd eaag|ed (3B^cd ed=cB|ABcd ed^cd|
|ed (3B^cd edcd|ed^cd eaag|fgdB =cABG|ABcd gedB||

